context/brand-context/default/img/icons/print.svg

<svg id="i-print" viewBox="0 0 18 18" xmlns="http://www.w3.org/2000/svg"><path d="m16.0049107 5h-14.00982141c-.54941618 0-.99508929.4467783-.99508929.99961498v6.00077002c0 .5570958.44271433.999615.99508929.999615h1.00491071v-3h12v3h1.0049107c.5494162 0 .9950893-.4467783.9950893-.999615v-6.00077002c0-.55709576-.4427143-.99961498-.9950893-.99961498zm-2.0049107-1v-2.00208688c0-.54777062-.4519464-.99791312-1.0085302-.99791312h-7.9829396c-.55661731 0-1.0085302.44910695-1.0085302.99791312v2.00208688zm1 10v2.0018986c0 1.103521-.9019504 1.9981014-2.0085302 1.9981014h-7.9829396c-1.1092806 0-2.0085302-.8867064-2.0085302-1.9981014v-2.0018986h-1.00491071c-1.10185739 0-1.99508929-.8874333-1.99508929-1.999615v-6.00077002c0-1.10435686.8926228-1.99961498 1.99508929-1.99961498h1.00491071v-2.00208688c0-1.10341695.90195036-1.99791312 2.0085302-1.99791312h7.9829396c1.1092806 0 2.0085302.89826062 2.0085302 1.99791312v2.00208688h1.0049107c1.1018574 0 1.9950893.88743329 1.9950893 1.99961498v6.00077002c0 1.1043569-.8926228 1.999615-1.9950893 1.999615zm-1-3h-10v5.0018986c0 .5546075.44702548.9981014 1.0085302.9981014h7.9829396c.5565964 0 1.0085302-.4491701 1.0085302-.9981014zm-9 1h8v1h-8zm0 2h5v1h-5zm9-5c-.5522847 0-1-.44771525-1-1s.4477153-1 1-1 1 .44771525 1 1-.4477153 1-1 1z" fill="currentColor" fill-rule="evenodd"/></svg>

<svg id="i-print" viewBox="0 0 18 18" xmlns="http://www.w3.org/2000/svg"><path d="M16.005 5H1.995A.997.997 0 0 0 1 6v6c0 .557.443 1 .995 1H3v-3h12v3h1.005c.55 0 .995-.447.995-1V6c0-.557-.443-1-.995-1zM14 4V1.998C14 1.45 13.548 1 12.991 1H5.01C4.452 1 4 1.45 4 1.998V4zm1 10v2.002A2.005 2.005 0 0 1 12.991 18H5.01A1.998 1.998 0 0 1 3 16.002V14H1.995A1.992 1.992 0 0 1 0 12V6c0-1.105.893-2 1.995-2H3V1.998C3 .894 3.902 0 5.009 0h7.982C14.101 0 15 .898 15 1.998V4h1.005C17.107 4 18 4.887 18 6v6c0 1.105-.893 2-1.995 2zm-1-3H4v5.002c0 .555.447.998 1.009.998h7.982c.557 0 1.009-.45 1.009-.998zm-9 1h8v1H5zm0 2h5v1H5zm9-5a1 1 0 1 1 0-2 1 1 0 0 1 0 2z" fill="currentColor" fill-rule="evenodd"/></svg>
